X:1
T:Never Known to Fail
T:Never Known to Fail
T:Herbert J. Lacey
T:Alice Jean Cleator, 1904, alt.
T:Public Domain Courtesy of the Cyber Hymnal™
T:Public Domain Courtesy of the Cyber Hymnal™
C:Herbert J. Lacey
Z:Public Domain
Z:Courtesy of the Cyber Hymnal™
%%score ( 1 2 ) ( 3 4 )
L:1/8
Q:1/4=95
M:4/4
K:Bb
V:1 treble 
V:2 treble 
V:3 bass 
V:4 bass 
V:1
 [B,D][CE] | [DF][DF][DF][DF] [DF]2 [DB][FA] | [EG][EG][EG][EG] [EG]2 [Gc][GB] | %3
w: 1.~O the|prom- is- es of God Long have|Sa- tan’s might with- stood, And no|
w: 2.~O the|might- y hand of time Fa- shions|ma- ny works sub- lime, Yet the|
w: 3.~Trust those|ho- ly words to- day, Let them|guide you on life’s way, Seek their|
 [FA][FA][FA][FA] [EA][EF][EG][EA] | [DB]6 [DB][Ec] | [Fd][Fd][Fd][Ec] [DB]2 [DB][DB] | %6
w: power of dark- ness O’er them shall pre-|vail; They are|build- ed sure and strong For the|
w: tide of years their Splen- dor shall as-|sail; But the|Word of God this hour, Thrills with|
w: ref- uge in Temp- ta- tion’s rough- est|gale; Strength and|cour- age they shall lend, Power from|
 [Ec][Ec][Fd][Fd] !fermata![Ge]2 [Gc][Gc] | [FB][FB][FB][FB] [EB][EA][EG][EA] | [DB]6"^Refrain" || %9
w: con- flict with the wrong, And those|prom- is- es were Ne- ver known to|fail.|
w: all the old- time power, For those|prom- is- es were Ne- ver known to|fail.|
w: Hea- ven shall des- cend, For those|prom- is- es were Ne- ver known to|fail.|
 [Fd]2 | [Fd][Fd][Fd][Fd] [Fd][DB][EA][DB] | c6 [Fc]2 | [Ec][Ec][Ec][Ec] [Ec][EA][EG][EF] | %13
w: ||||
w: God’s|prom- is- es were Ne- ver known to|fail! No|power of dark- ness o’er Them shall pre-|
w: ||||
 B6 [DB][Ec] | [Fd][Fd][Fd][Ec] [DB]2 [DB][DB] | [Ec][Ec][Fd][Fd] !fermata![Ge]2 [Gc]2 | %16
w: |||
w: vail! They are|build- ed sure and strong For the|con- flict with the wrong, God’s|
w: |||
 [FB][FB][FB][FB] [EB][EA][EG][EA] | [DB]6 |] %18
w: ||
w: prom- is- es were Ne- ver known to|fail!|
w: ||
V:2
 x2 | x8 | x8 | x8 | x8 | x8 | x8 | x8 | x6 || x2 | x8 | (FFFF F2) x2 | x8 | (D2 EE D2) x2 | x8 | %15
 x8 | x8 | x6 |] %18
V:3
 [B,,F,][B,,F,] | [B,,B,][B,,B,][B,,B,][B,,B,] [B,,B,]2 [B,,F,][B,,B,] | %2
 [E,B,][E,B,][E,B,][E,B,] [E,B,]2 [E,B,][E,E] | [F,C][F,C][F,C][F,C] [F,C][F,A,][F,B,][F,C] | %4
 [B,,B,]6 [B,,B,][B,,B,] | [B,,B,][B,,B,][B,,B,][B,,B,] [B,,B,]2 [B,,F,][B,,F,] | %6
 [E,G,][E,G,][D,G,][D,G,] !fermata![C,G,]2 [E,C][E,C] | %7
 [F,D][F,D][F,D][F,D] [F,C][F,C][F,B,][F,C] | [B,,B,]6 || [B,,B,]2 | %10
 [B,,B,][B,,B,][B,,B,][B,,B,] [B,,B,][B,,B,][C,F,][B,,F,] | %11
 ([F,A,][F,A,][F,A,][F,A,] [F,A,]2) [F,A,]2 | [F,A,][F,A,][F,A,][F,A,] [F,A,][F,C][F,B,][F,A,] | %13
 (B,F,G,G, F,2) [B,,B,][B,,B,] | [B,,B,][B,,B,][B,,B,][B,,B,] [B,,B,]2 [B,,F,][B,,F,] | %15
 [E,G,][E,G,][D,G,][D,G,] !fermata![C,G,]2 [E,C]2 | [F,D][F,D][F,D][F,D] [F,C][F,C][F,B,][F,C] | %17
 [B,,B,]6 |] %18
V:4
 x2 | x8 | x8 | x8 | x8 | x8 | x8 | x8 | x6 || x2 | x8 | x8 | x8 | B,,6 x2 | x8 | x8 | x8 | x6 |] %18

